svg/emoji_u1fad0.svg

<?xml version="1.0" encoding="utf-8"?>
<!-- Generator: Adobe Illustrator 24.0.3, SVG Export Plug-In . SVG Version: 6.00 Build 0)  -->
<svg version="1.1" id="Layer_2" xmlns="http://www.w3.org/2000/svg" xmlns:xlink="http://www.w3.org/1999/xlink" x="0" y="0"
	 viewBox="0 0 128 128" style="enable-background:new 0 0 128 128;" xml:space="preserve">
<g>
	<g>
		<path style="fill:#3F51B5;" d="M21.1,23.79c-0.46,0.11-2.08-1.23-7.01-0.76c-1.87,0.18-2.55,0.66-2.55,0.66s0.18-2.66,2.42-4.45
			c1.57-1.26,3.01-1.75,4-1.94c0.71-0.14,1.16-0.81,1.05-1.53c-0.27-1.71-0.32-4.52,1.83-5.95c2.02-1.35,4.19-0.42,5.52,0.46
			c0.66,0.44,1.54,0.23,1.92-0.48c0.5-0.94,1.33-2.17,2.62-3.17c2.51-1.94,4.85-0.62,4.85-0.62s-2.15,1.86-2.25,6.6
			c-0.01,0.52,0.19,1.82-0.09,2.28c-3.28,2.33-5.38,4.13-8.66,6.47c-1.37,0.98-1.75,1.24-3.14,2.19
			C21.43,23.68,21.26,23.75,21.1,23.79z"/>
		<circle style="fill:#3F51B5;" cx="43.83" cy="39.44" r="30.22"/>
		<path style="fill:#303F9F;" d="M61.17,14.69c1.58,3.03,4.1,5.07,2.28,14.8c-1.41,7.54-7.71,15.42-20.65,16.26
			c-11.01,0.71-18.79-5.3-21.02-12.6c-2.12-6.94-0.87-12.82,3.53-17.6c-11.22,7.48-11.7,20.41-11.7,23.88
			c0,16.69,13.53,30.22,30.22,30.22s30.22-13.53,30.22-30.22C74.06,29.2,68.96,20.15,61.17,14.69z"/>
	</g>
	<g>
		<circle style="fill:#5064C9;" cx="90.39" cy="59.75" r="33.12"/>
		<path style="fill:#4054B0;" d="M123.47,61.06c-5.69,14.41-18.79,25.92-39.19,19.6c-16.67-5.17-25.41-25-20.49-40.55
			c-2.06,2.81-3.71,5.99-4.83,9.49c-5.56,17.42,4.02,36.05,21.41,41.6c17.39,5.55,36-4.07,41.56-21.49
			C122.84,66.84,123.34,63.94,123.47,61.06z"/>
		<path style="fill:#8092F2;" d="M100.36,46.17c0,0,3.48,8,9.12,6.08c3.38-1.15,2.5-6.79,2.5-6.79s8.99-0.41,8.58-4.36
			c-0.42-4.05-6.07-5.37-6.07-5.37s-0.49-5.85-2.51-7.4c-3.37-2.57-7.56,1.42-7.56,1.42s-3.23-5.41-8.11-4.36
			c-3.91,0.84-1.77,9.2-1.77,9.2s-5.66-0.07-3.31,4.58C93.8,44.27,100.36,46.17,100.36,46.17z"/>
		
			<ellipse transform="matrix(0.4494 -0.8933 0.8933 0.4494 22.5023 114.8371)" style="fill:#2F3E82;" cx="104.42" cy="39.16" rx="6.45" ry="7.34"/>
		
			<ellipse transform="matrix(0.5618 -0.8273 0.8273 0.5618 12.2862 103.5293)" style="fill:#5064C9;" cx="103.87" cy="40.17" rx="5.52" ry="6.36"/>
	</g>
	<g>
		<circle style="fill:#6678D9;" cx="38.67" cy="88.24" r="34.18"/>
		<path style="fill:#5366CF;" d="M70.98,77.09c0.19,1.32,0.67,35.28-33.79,36.26c-14.12,0.4-23.69-8.91-28.13-19.59
			C4.5,82.79,9.9,69.8,9.9,69.8s-2.89,4.66-3.53,7.29c-1.21,3.5-1.87,7.25-1.87,11.15c0,18.88,15.3,34.18,34.18,34.18
			s34.18-15.3,34.18-34.18C72.85,84.33,72.18,80.58,70.98,77.09z"/>
		<path style="fill:#9AA7ED;" d="M35.42,81.76c0,0-4.05,7.91-11.4,5.77c-3.4-0.99-1.81-6.31-1.81-6.31s-4.75-0.39-6.47-4.48
			c-1.54-3.66,6.7-5.12,6.7-5.12s-3.26-6,0.19-8.42s7.21,3.02,7.21,3.02s3.07-8.86,7.06-5.93c3.82,2.81,2.85,10.91,2.85,10.91
			s6.88,1.16,4.56,5.81C41.75,82.13,35.42,81.76,35.42,81.76z"/>
		
			<ellipse transform="matrix(0.9771 -0.2128 0.2128 0.9771 -15.3048 8.1493)" style="fill:#2C3F9E;" cx="30.2" cy="75.16" rx="7.77" ry="7.17"/>
		
			<ellipse transform="matrix(0.9771 -0.2128 0.2128 0.9771 -15.3911 8.422)" style="fill:#5366CF;" cx="31.42" cy="75.7" rx="6.57" ry="6.3"/>
	</g>
</g>
</svg>

<?xml version="1.0" encoding="UTF-8" standalone="no"?>
<!DOCTYPE svg PUBLIC "-//W3C//DTD SVG 1.1//EN" "http://www.w3.org/Graphics/SVG/1.1/DTD/svg11.dtd">
<svg width="100%" height="100%" viewBox="0 0 128 128" version="1.1" xmlns="http://www.w3.org/2000/svg" xmlns:xlink="http://www.w3.org/1999/xlink" xml:space="preserve" xmlns:serif="http://www.serif.com/" style="fill-rule:evenodd;clip-rule:evenodd;stroke-linejoin:round;stroke-miterlimit:2;">
    <g>
        <g>
            <path d="M21.1,23.79C20.64,23.9 19.02,22.56 14.09,23.03C12.22,23.21 11.54,23.69 11.54,23.69C11.54,23.69 11.72,21.03 13.96,19.24C15.53,17.98 16.97,17.49 17.96,17.3C18.67,17.16 19.12,16.49 19.01,15.77C18.74,14.06 18.69,11.25 20.84,9.82C22.86,8.47 25.03,9.4 26.36,10.28C27.02,10.72 27.9,10.51 28.28,9.8C28.78,8.86 29.61,7.63 30.9,6.63C33.41,4.69 35.75,6.01 35.75,6.01C35.75,6.01 33.6,7.87 33.5,12.61C33.49,13.13 33.69,14.43 33.41,14.89C30.13,17.22 28.03,19.02 24.75,21.36C23.38,22.34 23,22.6 21.61,23.55C21.43,23.68 21.26,23.75 21.1,23.79Z" style="fill:rgb(63,81,181);fill-rule:nonzero;"/>
            <circle cx="43.83" cy="39.44" r="30.22" style="fill:rgb(63,81,181);"/>
        </g>
        <g>
            <circle cx="90.39" cy="59.75" r="33.12" style="fill:rgb(80,100,201);"/>
            <path d="M100.36,46.17C100.36,46.17 103.84,54.17 109.48,52.25C112.86,51.1 111.98,45.46 111.98,45.46C111.98,45.46 120.97,45.05 120.56,41.1C120.14,37.05 114.49,35.73 114.49,35.73C114.49,35.73 114,29.88 111.98,28.33C108.61,25.76 104.42,29.75 104.42,29.75C104.42,29.75 101.19,24.34 96.31,25.39C92.4,26.23 94.54,34.59 94.54,34.59C94.54,34.59 88.88,34.52 91.23,39.17C93.8,44.27 100.36,46.17 100.36,46.17Z" style="fill:rgb(128,146,242);fill-rule:nonzero;"/>
            <g transform="matrix(0.4494,-0.8933,0.8933,0.4494,22.5023,114.837)">
                <ellipse cx="104.42" cy="39.16" rx="6.45" ry="7.34" style="fill:rgb(47,62,130);"/>
            </g>
            <g transform="matrix(0.5618,-0.8273,0.8273,0.5618,12.2862,103.529)">
                <ellipse cx="103.87" cy="40.17" rx="5.52" ry="6.36" style="fill:rgb(80,100,201);"/>
            </g>
        </g>
        <g>
            <circle cx="38.67" cy="88.24" r="34.18" style="fill:rgb(102,120,217);"/>
            <path d="M35.42,81.76C35.42,81.76 31.37,89.67 24.02,87.53C20.62,86.54 22.21,81.22 22.21,81.22C22.21,81.22 17.46,80.83 15.74,76.74C14.2,73.08 22.44,71.62 22.44,71.62C22.44,71.62 19.18,65.62 22.63,63.2C26.08,60.78 29.84,66.22 29.84,66.22C29.84,66.22 32.91,57.36 36.9,60.29C40.72,63.1 39.75,71.2 39.75,71.2C39.75,71.2 46.63,72.36 44.31,77.01C41.75,82.13 35.42,81.76 35.42,81.76Z" style="fill:rgb(154,167,237);fill-rule:nonzero;"/>
            <g transform="matrix(0.9771,-0.2128,0.2128,0.9771,-15.3048,8.1493)">
                <ellipse cx="30.2" cy="75.16" rx="7.77" ry="7.17" style="fill:rgb(44,63,158);"/>
            </g>
            <g transform="matrix(0.9771,-0.2128,0.2128,0.9771,-15.3911,8.422)">
                <ellipse cx="31.42" cy="75.7" rx="6.57" ry="6.3" style="fill:rgb(83,102,207);"/>
            </g>
        </g>
    </g>
</svg>
